astro/public/img/icons/developer-guide-gdpr.svg

<svg height="70" viewBox="0 0 70 70" width="70" xmlns="http://www.w3.org/2000/svg" xmlns:xlink="http://www.w3.org/1999/xlink"><linearGradient id="a" x1="0%" x2="100%" y1="0%" y2="100%"><stop offset="0" stop-color="#a4aebe"/><stop offset="1" stop-color="#2d53f5"/></linearGradient><path d="m29.5 0c7.8797266 0 15.2877988 3.06846094 20.8597266 8.64027344 5.5719277 5.57181246 8.6402734 12.97999996 8.6402734 20.85972656s-3.0684609 15.2877988-8.6402734 20.8597266c-5.5718125 5.5719277-12.98 8.6402734-20.8597266 8.6402734s-15.2877988-3.0684609-20.85972656-8.6402734c-5.57192774-5.5718125-8.64027344-12.98-8.64027344-20.8597266s3.06846094-15.2877988 8.64027344-20.85972656c5.57181246-5.57192774 12.97999996-8.64027344 20.85972656-8.64027344zm0 3.6875c-14.2330586 0-25.8125 11.5794414-25.8125 25.8125s11.5794414 25.8125 25.8125 25.8125 25.8125-11.5794414 25.8125-25.8125-11.5794414-25.8125-25.8125-25.8125zm14.2098965 11.6024883c.5214355.5215508.6820722 1.3036465.4081601 1.9884844l-7.375 18.4375c-.1873711.4684277-.5586562.8397128-1.0270839 1.0270839l-18.4375 7.375c-.2219415.0888457-.4541387.1319434-.684377.1319434-.4801816 0-.9516055-.1876016-1.3041074-.5401035-.5214356-.5215508-.6820723-1.3036465-.4081602-1.9884844l7.375-18.4375c.1873711-.4684277.5586563-.8397129 1.027084-1.027084l18.4375-7.375c.6849531-.2739121 1.4669336-.1132754 1.9884844.4081602zm-19.0678965 11.9590117-4.7386035 11.8476035 11.8466035-4.7396035zm14.4546035-7.3456035-11.8476035 4.7386035 7.108 7.108z" fill="url(#a)" transform="translate(6 6)"/></svg>

<svg xmlns="http://www.w3.org/2000/svg" width="70" height="70"><linearGradient id="a" x1="0%" x2="100%" y1="0%" y2="100%"><stop offset="0" stop-color="#a4aebe"/><stop offset="1" stop-color="#2d53f5"/></linearGradient><path fill="url(#a)" d="M29.5 0c7.88 0 15.288 3.068 20.86 8.64C55.932 14.212 59 21.62 59 29.5s-3.068 15.288-8.64 20.86C44.788 55.932 37.38 59 29.5 59s-15.288-3.068-20.86-8.64C3.068 44.788 0 37.38 0 29.5S3.068 14.212 8.64 8.64C14.212 3.068 21.62 0 29.5 0zm0 3.688C15.267 3.688 3.687 15.267 3.687 29.5S15.268 55.313 29.5 55.313 55.313 43.733 55.313 29.5 43.733 3.687 29.5 3.687zM43.71 15.29c.521.522.682 1.304.408 1.988l-7.375 18.438c-.187.468-.559.84-1.027 1.027l-18.438 7.375a1.84 1.84 0 0 1-1.988-.408 1.844 1.844 0 0 1-.408-1.989l7.375-18.437c.187-.469.558-.84 1.027-1.027l18.437-7.375a1.844 1.844 0 0 1 1.989.408zM24.642 27.249l-4.739 11.848 11.847-4.74zm14.455-7.346-11.848 4.739 7.108 7.108z" transform="translate(6 6)"/></svg>
